icon-themes/breeze_svg/cmd/lc_marks.svg

<svg viewBox="0 0 24 24" xmlns="http://www.w3.org/2000/svg"><path d="m3 3v18h18v-18zm1 1h5v1h-2v14h2v1h-5v-1h2v-14h-2zm5 12h1v1h9v-1h1v1 1h-1-9-1z" fill="#4d4d4d"/></svg>

<svg xmlns="http://www.w3.org/2000/svg" viewBox="0 0 24 24">
 <path 
     style="fill:#4d4d4d" 
     d="M 3 3 L 3 21 L 21 21 L 21 3 L 3 3 z M 4 4 L 9 4 L 9 5 L 7 5 L 7 19 L 9 19 L 9 20 L 4 20 L 4 19 L 6 19 L 6 5 L 4 5 L 4 4 z M 9 16 L 10 16 L 10 17 L 19 17 L 19 16 L 20 16 L 20 17 L 20 18 L 19 18 L 10 18 L 9 18 L 9 16 z "
     />
 </svg>
